X:10405
T:Martin Wynne's #2a
N:IrTrad, 6/99, Jeffrey Erickson <jeerickson@DAVIDSON.EDU>
M:C|
L:1/8
Q:240
C:Martin Wynne
R:Reel
A:Co. Sligo
K:D
F3 D ~E2 FE | DB,~B,2 DB,A,D | B,E~E2 FEDE | FB{d}Bc dcBA |
FBAF ~E2 FE | DB,EB, DB,A,D | B,E~E2 FEDE | FB{d}BA B3 A :||:
FBAF A2 FA | (3Bcd eg fdde | ~f2 af egfe | dfed BAFE |
~F2 BF A2 dA | (3Bcd eg fdde | ~f2 df egfe | dBAF B3 A :||
